file/deloitte.svg

<svg clip-rule="evenodd" fill-rule="evenodd" stroke-linejoin="round" stroke-miterlimit="1.41421" viewBox="0 0 560 400" xmlns="http://www.w3.org/2000/svg"><g fill-rule="nonzero" transform="matrix(1.22801 0 0 1.22801 34.3955 15.7978)"><path d="m375.223 176.258c0-5.736 4.657-10.389 10.39-10.389 5.736 0 10.387 4.653 10.387 10.389s-4.651 10.387-10.387 10.387c-5.733 0-10.39-4.651-10.39-10.387" fill="#86bc24"/><path d="m43.878 148.743c0-6.58-1.271-11.463-3.814-14.643-2.547-3.178-6.404-4.765-11.59-4.765h-5.516v40.242h4.22c5.76 0 9.981-1.708 12.669-5.135 2.684-3.421 4.031-8.655 4.031-15.699m19.673-.685c0 11.989-3.223 21.227-9.668 27.712-6.445 6.487-15.506 9.731-27.186 9.731h-22.694v-71.841h24.279c11.261 0 19.955 2.949 26.082 8.845 6.124 5.898 9.187 14.412 9.187 25.553m62.863 37.442h18.059v-72.141h-18.059zm43.428-26.909c0 4.599.601 8.108 1.801 10.519 1.202 2.414 3.216 3.62 6.048 3.62 2.802 0 4.783-1.206 5.938-3.62 1.154-2.411 1.728-5.919 1.728-10.519 0-4.576-.583-8.027-1.753-10.357-1.172-2.336-3.171-3.505-6.006-3.505-2.772 0-4.753 1.163-5.956 3.478-1.199 2.318-1.801 5.778-1.801 10.384m33.896 0c0 8.763-2.297 15.599-6.903 20.5-4.602 4.903-11.045 7.356-19.327 7.356-7.942 0-14.265-2.507-18.957-7.522-4.699-5.014-7.047-11.79-7.047-20.334 0-8.736 2.3-15.525 6.906-20.365 4.605-4.84 11.063-7.26 19.378-7.26 5.138 0 9.683 1.122 13.621 3.361 3.941 2.24 6.984 5.448 9.121 9.626 2.141 4.173 3.208 9.055 3.208 14.638m7.172 26.909h18.062v-27.609-25.977h-18.062zm0-60.068h18.061v-12.076h-18.061zm54.654 46.4c2.438 0 5.342-.619 8.73-1.848v13.483c-2.435 1.07-4.75 1.836-6.951 2.29-2.2.46-4.783.689-7.738.689-6.063 0-10.434-1.524-13.119-4.567-2.672-3.042-4.014-7.714-4.014-14.018v-22.09h-6.324v-13.853h6.324v-13.684l18.2-3.166v16.85h11.523v13.853h-11.523v20.858c0 3.469 1.632 5.203 4.891 5.203m41.802 0c2.438 0 5.342-.619 8.73-1.848v13.483c-2.432 1.07-4.75 1.836-6.95 2.29-2.204.46-4.777.689-7.739.689-6.063 0-10.434-1.524-13.113-4.567-2.678-3.042-4.019-7.714-4.019-14.018v-22.09h-6.328v-13.853h6.328v-13.892l18.197-2.958v16.85h11.529v13.853h-11.529v20.858c0 3.469 1.632 5.203 4.894 5.203m31.519-19.769c.247-2.934 1.086-5.084 2.516-6.458 1.438-1.371 3.212-2.056 5.333-2.056 2.315 0 4.155.77 5.52 2.321 1.374 1.542 2.089 3.608 2.146 6.193zm25.47-14.779c-4.293-4.209-10.384-6.316-18.263-6.316-8.283 0-14.656 2.42-19.124 7.26-4.464 4.84-6.697 11.785-6.697 20.833 0 8.764 2.414 15.522 7.23 20.266 4.819 4.743 11.586 7.118 20.301 7.118 4.185 0 7.786-.285 10.804-.853 3.001-.562 5.905-1.579 8.721-3.046l-2.775-12.076c-2.047.836-3.995 1.479-5.835 1.903-2.657.616-5.573.926-8.748.926-3.482 0-6.229-.851-8.244-2.552-2.014-1.705-3.087-4.056-3.21-7.05h32.281v-8.228c0-7.916-2.146-13.979-6.442-18.185m-276.832 14.779c.246-2.934 1.085-5.084 2.516-6.458 1.434-1.371 3.21-2.056 5.336-2.056 2.309 0 4.149.77 5.516 2.321 1.374 1.542 2.086 3.608 2.15 6.193zm25.472-14.779c-4.296-4.209-10.383-6.316-18.266-6.316-8.285 0-14.656 2.42-19.12 7.26-4.465 4.84-6.701 11.785-6.701 20.833 0 8.764 2.411 15.522 7.233 20.266 4.816 4.743 11.583 7.118 20.298 7.118 4.185 0 7.787-.285 10.805-.853 3-.562 5.904-1.579 8.724-3.046l-2.778-12.076c-2.048.836-3.996 1.479-5.832 1.903-2.664.616-5.577.926-8.752.926-3.478 0-6.229-.851-8.243-2.552-2.018-1.705-3.087-4.056-3.211-7.05h32.282v-8.228c0-7.916-2.147-13.979-6.44-18.185" fill="#0f0b0b"/></g></svg>

<?xml version="1.0" encoding="UTF-8" standalone="no"?>
<!DOCTYPE svg PUBLIC "-//W3C//DTD SVG 1.1//EN" "http://www.w3.org/Graphics/SVG/1.1/DTD/svg11.dtd">
<svg width="100%" height="100%" viewBox="0 0 560 400" version="1.1" xmlns="http://www.w3.org/2000/svg" xmlns:xlink="http://www.w3.org/1999/xlink" xml:space="preserve" xmlns:serif="http://www.serif.com/" style="fill-rule:evenodd;clip-rule:evenodd;stroke-linejoin:round;stroke-miterlimit:1.41421;">
    <g transform="matrix(1.22801,0,0,1.22801,34.3955,15.7978)">
        <path id="logo_2_" d="M375.223,176.258C375.223,170.522 379.88,165.869 385.613,165.869C391.349,165.869 396,170.522 396,176.258C396,181.994 391.349,186.645 385.613,186.645C379.88,186.645 375.223,181.994 375.223,176.258" style="fill:rgb(134,188,36);fill-rule:nonzero;"/>
        <path id="logo_1_" d="M43.878,148.743C43.878,142.163 42.607,137.28 40.064,134.1C37.517,130.922 33.66,129.335 28.474,129.335L22.958,129.335L22.958,169.577L27.178,169.577C32.938,169.577 37.159,167.869 39.847,164.442C42.531,161.021 43.878,155.787 43.878,148.743M63.551,148.058C63.551,160.047 60.328,169.285 53.883,175.77C47.438,182.257 38.377,185.501 26.697,185.501L4.003,185.501L4.003,113.66L28.282,113.66C39.543,113.66 48.237,116.609 54.364,122.505C60.488,128.403 63.551,136.917 63.551,148.058M126.414,185.5L144.473,185.5L144.473,113.359L126.414,113.359L126.414,185.5ZM169.842,158.591C169.842,163.19 170.443,166.699 171.643,169.11C172.845,171.524 174.859,172.73 177.691,172.73C180.493,172.73 182.474,171.524 183.629,169.11C184.783,166.699 185.357,163.191 185.357,158.591C185.357,154.015 184.774,150.564 183.604,148.234C182.432,145.898 180.433,144.729 177.598,144.729C174.826,144.729 172.845,145.892 171.642,148.207C170.443,150.525 169.841,153.985 169.841,158.591M203.737,158.591C203.737,167.354 201.44,174.19 196.834,179.091C192.232,183.994 185.789,186.447 177.507,186.447C169.565,186.447 163.242,183.94 158.55,178.925C153.851,173.911 151.503,167.135 151.503,158.591C151.503,149.855 153.803,143.066 158.409,138.226C163.014,133.386 169.472,130.966 177.787,130.966C182.925,130.966 187.47,132.088 191.408,134.327C195.349,136.567 198.392,139.775 200.529,143.953C202.67,148.126 203.737,153.008 203.737,158.591M210.909,185.5L228.971,185.5L228.971,157.891L228.971,131.914L210.909,131.914L210.909,185.5ZM210.909,125.432L228.97,125.432L228.97,113.356L210.909,113.356L210.909,125.432ZM265.563,171.832C268.001,171.832 270.905,171.213 274.293,169.984L274.293,183.467C271.858,184.537 269.543,185.303 267.342,185.757C265.142,186.217 262.559,186.446 259.604,186.446C253.541,186.446 249.17,184.922 246.485,181.879C243.813,178.837 242.471,174.165 242.471,167.861L242.471,145.771L236.147,145.771L236.147,131.918L242.471,131.918L242.471,118.234L260.671,115.068L260.671,131.918L272.194,131.918L272.194,145.771L260.671,145.771L260.671,166.629C260.671,170.098 262.303,171.832 265.562,171.832M307.364,171.832C309.802,171.832 312.706,171.213 316.094,169.984L316.094,183.467C313.662,184.537 311.344,185.303 309.144,185.757C306.94,186.217 304.367,186.446 301.405,186.446C295.342,186.446 290.971,184.922 288.292,181.879C285.614,178.837 284.273,174.165 284.273,167.861L284.273,145.771L277.945,145.771L277.945,131.918L284.273,131.918L284.273,118.026L302.47,115.068L302.47,131.918L313.999,131.918L313.999,145.771L302.47,145.771L302.47,166.629C302.47,170.098 304.102,171.832 307.364,171.832M338.883,152.063C339.13,149.129 339.969,146.979 341.399,145.605C342.837,144.234 344.611,143.549 346.732,143.549C349.047,143.549 350.887,144.319 352.252,145.87C353.626,147.412 354.341,149.478 354.398,152.063L338.883,152.063L338.883,152.063ZM364.353,137.284C360.06,133.075 353.969,130.968 346.09,130.968C337.807,130.968 331.434,133.388 326.966,138.228C322.502,143.068 320.269,150.013 320.269,159.061C320.269,167.825 322.683,174.583 327.499,179.327C332.318,184.07 339.085,186.445 347.8,186.445C351.985,186.445 355.586,186.16 358.604,185.592C361.605,185.03 364.509,184.013 367.325,182.546L364.55,170.47C362.503,171.306 360.555,171.949 358.715,172.373C356.058,172.989 353.142,173.299 349.967,173.299C346.485,173.299 343.738,172.448 341.723,170.747C339.709,169.042 338.636,166.691 338.513,163.697L370.794,163.697L370.794,155.469C370.794,147.553 368.648,141.49 364.352,137.284M87.52,152.063C87.766,149.129 88.605,146.979 90.036,145.605C91.47,144.234 93.246,143.549 95.372,143.549C97.681,143.549 99.521,144.319 100.888,145.87C102.262,147.412 102.974,149.478 103.038,152.063L87.52,152.063L87.52,152.063ZM112.992,137.284C108.696,133.075 102.609,130.968 94.726,130.968C86.441,130.968 80.07,133.388 75.606,138.228C71.141,143.068 68.905,150.013 68.905,159.061C68.905,167.825 71.316,174.583 76.138,179.327C80.954,184.07 87.721,186.445 96.436,186.445C100.621,186.445 104.223,186.16 107.241,185.592C110.241,185.03 113.145,184.013 115.965,182.546L113.187,170.47C111.139,171.306 109.191,171.949 107.355,172.373C104.691,172.989 101.778,173.299 98.603,173.299C95.125,173.299 92.374,172.448 90.36,170.747C88.342,169.042 87.273,166.691 87.149,163.697L119.431,163.697L119.431,155.469C119.431,147.553 117.284,141.49 112.991,137.284" style="fill:rgb(15,11,11);fill-rule:nonzero;"/>
    </g>
</svg>
